static/img/olake/blog-image-2.svg

<svg xmlns="http://www.w3.org/2000/svg" width="554" height="298" fill="none" viewBox="0 0 554 298"><g clip-path="url(#a)"><rect width="553" height="298" x=".5" fill="#22e2c9" rx="8"/><g filter="url(#b)"><ellipse cx="384" cy="230.5" fill="#5afce6" rx="210.5" ry="176.5"/></g><path fill="#fff" d="M327 91.5H227a12.5 12.5 0 0 0-12.5 12.5v35c0 33.931 16.45 54.513 30.25 65.806 14.819 12.119 29.65 16.25 30.275 16.432a7.6 7.6 0 0 0 3.95 0c.625-.176 15.456-4.313 30.275-16.432 13.8-11.293 30.25-31.875 30.25-65.806v-35A12.5 12.5 0 0 0 327 91.5m-97.5 15h95V139a74.7 74.7 0 0 1-4.375 26.025l-38.819-27.169a7.5 7.5 0 0 0-8.6 0l-38.831 27.169A74.7 74.7 0 0 1 229.5 139zm70.681 86.344A78.9 78.9 0 0 1 277 206.113a78.9 78.9 0 0 1-23.181-13.269 68.2 68.2 0 0 1-13.069-14.325L277 153.156l36.25 25.363a68.2 68.2 0 0 1-13.069 14.325"/></g><defs><clipPath id="a"><rect width="553" height="298" x=".5" fill="#fff" rx="8"/></clipPath><filter id="b" width="781" height="713" x="-6.5" y="-126" color-interpolation-filters="sRGB" filterUnits="userSpaceOnUse"><feFlood flood-opacity="0" result="BackgroundImageFix"/><feBlend in="SourceGraphic" in2="BackgroundImageFix" result="shape"/><feGaussianBlur result="effect1_foregroundBlur_1_1367" stdDeviation="90"/></filter></defs></svg>

<svg width="554" height="298" viewBox="0 0 554 298" fill="none" xmlns="http://www.w3.org/2000/svg">
<g clip-path="url(#clip0_1_1367)">
<rect x="0.5" width="553" height="298" rx="8" fill="#22E2C9"/>
<g filter="url(#filter0_f_1_1367)">
<ellipse cx="384" cy="230.5" rx="210.5" ry="176.5" fill="#5AFCE6"/>
</g>
<path d="M327 91.5H227C223.685 91.5 220.505 92.817 218.161 95.1612C215.817 97.5054 214.5 100.685 214.5 104V139C214.5 172.931 230.95 193.513 244.75 204.806C259.569 216.925 274.4 221.056 275.025 221.238C276.318 221.587 277.682 221.587 278.975 221.238C279.6 221.062 294.431 216.925 309.25 204.806C323.05 193.513 339.5 172.931 339.5 139V104C339.5 100.685 338.183 97.5054 335.839 95.1612C333.495 92.817 330.315 91.5 327 91.5ZM229.5 106.5H324.5V139C324.597 147.866 323.116 156.678 320.125 165.025L281.306 137.856C280.046 136.974 278.545 136.501 277.006 136.501C275.468 136.501 273.967 136.974 272.706 137.856L233.875 165.025C230.884 156.678 229.403 147.866 229.5 139V106.5ZM300.181 192.844C293.264 198.552 285.425 203.039 277 206.113C268.574 203.04 260.735 198.553 253.819 192.844C248.802 188.716 244.401 183.892 240.75 178.519L277 153.156L313.25 178.519C309.599 183.892 305.198 188.716 300.181 192.844Z" fill="white"/>
</g>
<defs>
<filter id="filter0_f_1_1367" x="-6.5" y="-126" width="781" height="713" filterUnits="userSpaceOnUse" color-interpolation-filters="sRGB">
<feFlood flood-opacity="0" result="BackgroundImageFix"/>
<feBlend mode="normal" in="SourceGraphic" in2="BackgroundImageFix" result="shape"/>
<feGaussianBlur stdDeviation="90" result="effect1_foregroundBlur_1_1367"/>
</filter>
<clipPath id="clip0_1_1367">
<rect x="0.5" width="553" height="298" rx="8" fill="white"/>
</clipPath>
</defs>
</svg>
